!!!OTL: Scheidelied
!!!ARE: Europa, Mitteleuropa, Deutschland
!!!SCT: A0263
!!!YEM: Copyright 1995, estate of Helmut Schaffrath.
**kern
*ICvox
*Ivox
*M4/2
*k[]
*a:
=1
{1ee
2ee
2ee
=2
2ee
2dd
2ee
[2ggn
=3
2ggn]
1ffn
4ee
4dd
=4
2ee
2ccn
2r}
{2ee
=5
2ee
2ee
2ee
[2dd
=6
2dd]
2.ccn
4b
4ccn
4dd
=7
0ee}
=8
{1ee
2ee
2ee
=9
2ee
2dd
2ee
[2ggn
=10
2ggn]
1ffn
4ee
4dd
=11
2ee
2ccn
2r}
{2ee
=12
2ee
2ee
2ee
[2dd
=13
2dd]
2.ccn
4b
4ccn
4dd
=14
1ee
2r}
{2ee
=15
2.ggn
4ffn
2ee
2dd
=16
2ccn
2a
1gn}
=17
{2r
2ggn
2ggn
2ggn
=18
2aa
2ffn
2ggn
[2ee
=19
2ee]
4dd
4ccn
4b
4a
2b
=20
1a
1r}
=21
{2r
2a
2ee
2ggn
=22
1ffn
1ee
=23
1a
2r}
{2ee
=24
2ggn
1ee
2dd
=25
4dd
4ccn
4b
4a
2b
2b
=26
0a}
==
!! Forster III 1549 No. 18.
!!!ONB: ESAC (Essen Associative Code) Database: ALTDEU
!!!AMT: simple quadruple
!!!AIN: vox
!!!EED: Helmut Schaffrath
!!!EEV: 1.0
*-
